Newaita-dark/actions/scalable/system-log-out.svg

<?xml version="1.0" encoding="UTF-8"?>
<svg xmlns="http://www.w3.org/2000/svg" xmlns:xlink="http://www.w3.org/1999/xlink" width="512pt" height="512pt" viewBox="0 0 512 512" version="1.1">
<defs>
<filter id="alpha" filterUnits="objectBoundingBox" x="0%" y="0%" width="100%" height="100%">
  <feColorMatrix type="matrix" in="SourceGraphic" values="0 0 0 0 1 0 0 0 0 1 0 0 0 0 1 0 0 0 1 0"/>
</filter>
<mask id="mask0">
  <g filter="url(#alpha)">
<rect x="0" y="0" width="512" height="512" style="fill:rgb(0%,0%,0%);fill-opacity:0.988235;stroke:none;"/>
  </g>
</mask>
<clipPath id="clip1">
  <rect x="0" y="0" width="512" height="512"/>
</clipPath>
<g id="surface5" clip-path="url(#clip1)">
<path style=" stroke:none;fill-rule:nonzero;fill:rgb(100%,65.490198%,14.901961%);fill-opacity:1;" d="M 254.023438 25.167969 C 125.386719 25.167969 21.167969 129.386719 21.167969 258.023438 C 21.167969 386.660156 125.386719 490.882812 254.023438 490.882812 C 368.820312 490.882812 464.167969 407.878906 483.359375 298.59375 L 444.523438 322.867188 C 417.660156 402.269531 342.726562 459.125 254.023438 459.125 C 142.613281 459.125 52.921875 369.433594 52.921875 258.023438 C 52.921875 146.613281 142.613281 56.921875 254.023438 56.921875 C 340.921875 56.921875 414.605469 111.488281 442.824219 188.367188 L 481.421875 207.664062 C 458.414062 103.253906 365.367188 25.167969 254.023438 25.167969 Z M 254.023438 25.167969 "/>
</g>
</defs>
<g id="surface1">
<use xlink:href="#surface5" mask="url(#mask0)"/>
<path style=" stroke:none;fill-rule:nonzero;fill:rgb(100%,65.490198%,14.901961%);fill-opacity:1;" d="M 368.460938 179.527344 C 364.382812 179.363281 360.410156 180.871094 357.464844 183.699219 C 354.519531 186.527344 352.855469 190.433594 352.855469 194.515625 L 352.855469 321.527344 C 352.855469 326.933594 355.761719 331.921875 360.464844 334.582031 C 365.167969 337.246094 370.941406 337.171875 375.574219 334.394531 L 481.417969 270.886719 C 485.933594 268.175781 488.699219 263.292969 488.699219 258.023438 C 488.699219 252.753906 485.933594 247.871094 481.417969 245.160156 L 375.574219 181.652344 C 373.417969 180.359375 370.972656 179.628906 368.460938 179.527344 Z M 382.855469 221.011719 L 444.542969 258.023438 L 382.855469 295.035156 Z M 382.855469 221.011719 "/>
<path style=" stroke:none;fill-rule:nonzero;fill:rgb(100%,65.490198%,14.901961%);fill-opacity:1;" d="M 185.226562 242.148438 L 365.160156 242.148438 C 373.929688 242.148438 381.035156 249.257812 381.035156 258.023438 C 381.035156 266.792969 373.929688 273.902344 365.160156 273.902344 L 185.226562 273.902344 C 176.457031 273.902344 169.347656 266.792969 169.347656 258.023438 C 169.347656 249.257812 176.457031 242.148438 185.226562 242.148438 Z M 185.226562 242.148438 "/>
</g>
</svg>

<svg xmlns="http://www.w3.org/2000/svg" xmlns:xlink="http://www.w3.org/1999/xlink" width="512pt" height="512pt" viewBox="0 0 512 512"><defs><filter id="a" filterUnits="objectBoundingBox" x="0%" y="0%" width="100%" height="100%"><feColorMatrix in="SourceGraphic" values="0 0 0 0 1 0 0 0 0 1 0 0 0 0 1 0 0 0 1 0"/></filter><mask id="d"><path fill-opacity=".988" d="M0 0h512v512H0z" filter="url(#a)"/></mask><clipPath id="b"><path d="M0 0h512v512H0z"/></clipPath><g id="c" clip-path="url(#b)"><path d="M254.023 25.168c-128.636 0-232.855 104.219-232.855 232.855 0 128.637 104.219 232.86 232.855 232.86 114.797 0 210.145-83.004 229.336-192.29l-38.836 24.274c-26.863 79.403-101.796 136.258-190.5 136.258-111.41 0-201.101-89.691-201.101-201.102 0-111.41 89.691-201.101 201.101-201.101 86.899 0 160.582 54.566 188.801 131.445l38.598 19.297C458.414 103.254 365.367 25.168 254.023 25.168zm0 0" fill="#ffa726"/></g></defs><use xlink:href="#c" mask="url(#d)"/><path d="M368.46 179.527a15.01 15.01 0 0 0-10.995 4.172 14.995 14.995 0 0 0-4.61 10.817v127.011a14.996 14.996 0 0 0 7.61 13.055 15.006 15.006 0 0 0 15.11-.187l105.843-63.508a15.005 15.005 0 0 0 0-25.727l-105.844-63.508a15.01 15.01 0 0 0-7.113-2.125zm14.395 41.485l61.688 37.011-61.688 37.012zm0 0" fill="#ffa726"/><path d="M185.227 242.148H365.16c8.77 0 15.875 7.11 15.875 15.875 0 8.77-7.105 15.88-15.875 15.88H185.227c-8.77 0-15.88-7.11-15.88-15.88 0-8.765 7.11-15.875 15.88-15.875zm0 0" fill="#ffa726"/></svg>
